X:5925
T:Seanamhac Tube Station
O:england
M:6/8
L:1/8
Q:120
C:John Carty
R:jig
K:GMin
GFD DFD|GAc ~d3|dcA cAF|GFD CDF|
GFD DFD|GAc ~d3|dcA cAF|1~G3 G2 A:|2~G3 GAc|
:~d3 dcA|~c3 cAc|dcA cAF|GFD CAc|
|1~d3 dcA|~c3 gfd|dcA cAF|~G3 GAc:||
2GFD DFD|GAc ~d3|dcA cAF|~G3 G2 A||


